!!!OTL: Reveille. / Oder dreistimmig so Zweite Weise.
!!!OTL-incipit: DES MORGENS ZWISCHEN DREIN UND VIEREN
!!!ARE: Europa, Mitteleuropa, Deutschland
!!!SCT: F0580A
!!!TXL: @@DE
!!!YEM: Copyright 1995, estate of Helmut Schaffrath.
**kern	**text
*ICvox	*
*clefG2	*
*M4/4	*
*met(c)	*
*k[b-e-a-]	*
*E-:	*
!LO:TX:a:t=Schrittäſſig. Unheimlich ſchnell.	!
!LO:TX:a:t=P:only the highest voice encoded:problem	!
{8e-L	1._Des
8gJ	.
=1	=1
8b-/	Morgens
8b-/	.
8b-/	ʒwiſchen
8ee-	.
4g	drei'n
4e-	und
=2	=2
4cc/	vie-
4b-/	-ren,
4r}	.
{8e-L	da
8gJ	.
=3	=3
8b-/	müſſen
8b-/	.
8b-/	die
8b-/	Sol-
8cc/L	-da-
8b-J	.
8a-L	-ten
8gJ	mar-
=4	=4
4g	-ſchi-
4f	-ren
4r}	.
{8e-L	das
8gJ	.
=5	=5
4.b-/	Gäßlein
8g	.
8a-L	auf
8gJ	.
8a-L	und
8b-J	.
=6	=6
4g	ab;
4r	.
4r}	.
{8ee-/L	mein
8ccJ	.
=7	=7
4.b-/	Schätʒel
8g	.
8b-/L	ſieht
8a-J	.
8gL	her-
8fJ	.
=8	=8
4e-	-ab.
8r}	.
{8e-	Tra-
8b-/	-la-
8b-/	-li,
8b-/	tra-
8b-/	-lei-
=9	=9
(>8b-L	-dri,
8gJ'')	.
(>8a-L	dri,
8fJ''=	.
8e-	tral-
8b-/	-lal-
8b-/	-li,
8b-/	tra-
=10	=10
(>8b-L	-lal,
8gJ)	.
(8a-L	dri,
8fJ)}	.
{8ee-'	juch!
(8ee-/L	mein
8dd	.
8ccJ)	.
=11	=11
4.b-/	Schatʒel
8g	.
(>8b-L	ſieht
8a-J)	.
(8gL	her-
8a-J)	.
=12	=12
4g	-ab.
4r	.
4r}	.
==	==
!!!AGN: Soldaten - Lied
!!!ONB: ESAC (Essen Associative Code) Database: FINK
!!!AMT: simple quadruple
!!!AIN: vox
!!!EED: Helmut Schaffrath
!!!EEV: 1.0
!!!RDF**kern: > = above
!!!GTL: Soldaten- und Jaegerlieder
!!!source: Musikalischer Hausschatz der Deutschen. Eine Sammlung von über 1000 Liedern und Gesängen mit Singstimmen und Klavierbegleitung. Leipzig, Litterarisches Verlags-Haus.
!!!page: 377
!!!URL-scan: https://www.digitale-sammlungen.de/en/view/bsb11144622?page=344
!!!ENC: Anna Maria Matuszewska
!!!EEV: 2024/08/02
*-	*-